X:1
T: Old Muscles Grumble
N:
C:Gary Roodman
S:
A:
O:
R:
M:4/4
K:Em
I:speed 185
%W: A1
% voice 1 (1 lines, 39 notes)
K:Em
M:4/4
L:1/16
^a4 |b8 f4 B4 |^c2 ^d2 e4e4 f4 |g4 f2 g2 a4 g4 |f2 e2 ^d8 f4 |g2 f2 e4 a2 g2 f4 |b2 a2 g4 f4 B4 |e2 f2 ^d2 e2 f2 g2 f2 ^a2 |b12 ^a4 |
%W: A2
% voice 1 (1 lines, 39 notes)
b8 f4 B4 |^c2 ^d2 e4e4 f4 |g4 f2 g2 a4 g4 |f2 e2 ^d8 f4 |g2 f2 e4 a2 g2 f4 |b2 a2 g4 f4 B4 |e2 f2 ^d2 e2 f2 g2 f2 ^a2 |b12 a2 b2 |
%W: B1
% voice 1 (1 lines, 33 notes)
c'8 a4 f2 e2 |f2 e2 ^d8 a2 b2 |c'8 a4 g4 |f12 ^d4 |e4 f4 ^d4 e2 f2 |g4 a4 f4 g2 a2 |b4 c'2 b2 a2 g2 f4 |e12 a2 b2 |
%W: B2
% voice 1 (1 lines, 31 notes)
c'8 a4 f2 e2 |f2 e2 ^d8 a2 b2 |c'8 a4 g4 |f12 ^d4 |e4 f4 ^d4 e2 f2 |g4 a4 f4 g2 a2 |b4 c'2 b2 a2 g2 f4 |e12 ||
